X:1
T:Title
%%score { ( 1 3 ) | ( 2 4 ) }
L:1/8
Q:1/4=106
M:4/4
K:E
V:1 treble nm="Grand Piano"
V:3 treble 
V:2 bass 
V:4 bass 
V:1
 B2 B>G GG G>[GB] | [FA]4 z2 [DA]2 | [DA]3 [EG] [DF][EG][FA][Ac] |[M:3/4] [GB]4 z2 |[M:1/4] B2 | %5
w: S.~W.~Straub * * * * * *|||||
[M:4/4] B2 GG A2 BB | c6 e2 | e B3 B- [DB]2 D | E6 z2 | B2 B>B B>c B>G | E4 z2 B2 | c3 B ^A2 GA | %12
w: |||||||
[M:3/4] [DB]6 |[M:1/4] [DB]2 |[M:4/4] B2 GG A2 BB | c6 e2 | e B3 B- [DB]2 D | E8 |] %18
w: ||||||
V:2
 [E,G,E]2 [E,G,E]>[E,B,E] [E,B,E][E,B,E] [E,B,E]>[E,B,] | [F,B,]4 z2 [F,B,]2 | %2
 [B,,B,]3 [B,,B,] [B,,B,]2 [B,,B,]2 |[M:3/4] [E,B,]4 z2 |[M:1/4] [E,G,E]2 | %5
[M:4/4] [E,G,E]2 [E,B,E][E,B,E] [F,B,D]2[K:treble] [G,B,E][G,B,E] | [A,E]6 [^A,C=G]2 | %7
 [B,G] [B,EG]3[K:bass] z B,2 [B,,A,B,] | [E,G,B,]6 z2 | B,2 B,>B, B,>C B,>G, | E,4 z2 [G,B,E]2 | %11
 [A,E]3 [G,B,E] [F,CF]2 [F,E]2 |[M:3/4] [B,,F,]6 |[M:1/4] [B,,A,]2 | %14
[M:4/4] [E,G,E]2 [E,B,E][E,B,E] [F,B,D]2[K:treble] [G,B,E][G,B,E] | [A,E]6 [^A,C=G]2 | %16
 [B,G] [B,EG]3[K:bass] z B,2 [B,,A,B,] | [E,G,B,]8 |] %18
V:3
 x8 | x8 | x8 |[M:3/4] x6 |[M:1/4] x2 |[M:4/4] x8 | x8 | z4 .[EG]2 z2 | x8 | x8 | x8 | x8 | %12
[M:3/4] x6 |[M:1/4] x2 |[M:4/4] x8 | x8 | z4 .[EG]2 z2 | x8 |] %18
V:4
 x8 | x8 | x8 |[M:3/4] x6 |[M:1/4] x2 |[M:4/4] x6[K:treble] x2 | x8 | z4[K:bass] B,,4 | x8 | x8 | %10
 x8 | x8 |[M:3/4] x6 |[M:1/4] x2 |[M:4/4] x6[K:treble] x2 | x8 | z4[K:bass] B,,4 | x8 |] %18

